hero/outline/document-arrow-down.svg

<svg width="24" height="24" viewBox="0 0 24 24" fill="none" xmlns="http://www.w3.org/2000/svg">
<path d="M19.5 14.25V11.625C19.5 9.76104 17.989 8.25 16.125 8.25H14.625C14.0037 8.25 13.5 7.74632 13.5 7.125V5.625C13.5 3.76104 11.989 2.25 10.125 2.25H8.25M9 14.25L12 17.25M12 17.25L15 14.25M12 17.25L12 11.25M10.5 2.25H5.625C5.00368 2.25 4.5 2.75368 4.5 3.375V20.625C4.5 21.2463 5.00368 21.75 5.625 21.75H18.375C18.9963 21.75 19.5 21.2463 19.5 20.625V11.25C19.5 6.27944 15.4706 2.25 10.5 2.25Z" stroke="#0F172A" stroke-width="1.5" stroke-linecap="round" stroke-linejoin="round"/>
</svg>

<svg viewBox="0 0 24 24" xmlns="http://www.w3.org/2000/svg"><path fill="none" stroke="#000" stroke-linecap="round" stroke-linejoin="round" stroke-width="1.5" d="M19.5 14.25v-2.625 0c0-1.87-1.52-3.375-3.375-3.375h-1.5v0c-.63 0-1.125-.51-1.125-1.125v-1.5 0c0-1.87-1.52-3.38-3.375-3.38H8.25m.75 12l3 3m0 0l3-3m-3 3v-6m-1.5-9H5.625c-.63 0-1.125.504-1.125 1.125v17.25c0 .62.5 1.125 1.125 1.125h12.75c.62 0 1.125-.51 1.125-1.125V11.24v0c0-4.98-4.03-9-9-9Z"/></svg>
